X:56
%%score 1 2
%%pagewidth 9in
%%vocalfont Baskerville10Pro 13
T:The Carman's Whistle
M:6/8
L:1/8
K:D
V:1 clef-treble
V:2 clef-bass octave=-1
V:1 
G|d2d c2A & D6|B3 A3 & D6|[Dd]2d [Ec]2A|B>AB [CA]3 & [D^G]2x x3|
w:As I abroad* was walk-ing By the break-ing of the day, In-
V:2
z|B3 A3 & D6|G3 F3 & D6|[B,^G]3[A,A]2C|E3 A3|
V:1
[D=Gd]2d [EAc]2A|[CEB]3 [DA]2A|[^Gd]3 [A(c]2A) & E6|B>A[^GB] A3 & [D3F2] C3|
w:to a plea-sant mea dow A young man* took* his way,
V:2
B3 A3 |G3 F3|E6|E3 A3|
V:1
(=GB2) FA2 & D6|[CE]G2 [DF]2D|(GB2) FA2 & D6|[B,DG]>[A,F][G,CE] D2D|
w:And* look-ing  round a bout him, To* mark what he* could see, At
V:2
B2G A2F & D6|G2E A2D & D3-D2x|B,2G, D,2F,|G,2A, [DF]2D|
V:1
GB2 FA2 & D6|[C(E]G2) [D(F]2D)|(GB2) FA2 & D6|G>[A,F][G,CE] D2 & [B,D]3 x2||
w:length he spied a fair* maid* Un-*der a myr-*tle tree.
V:2
B2G A2F & D6|G2E A2D & D3-D2x|B,2G, D,2F,|G,2A, [DF]2||

